!!!COM: Palestrina, Giovanni Perluigi da
!!!OPR: Eripe me de inimicis
!!!OTL: Gloria
**kern	**kern	**kern	**kern	**kern
*Ibass	*Itenor	*Itenor	*Icalto	*Icant
!Bassus	!Tenor 2	!Tenor 1	!Altus	!Cantus
*clefF4	*clefGv2	*clefGv2	*clefG2	*clefG2
*k[]	*k[]	*k[]	*k[]	*k[]
*D:dor	*D:dor	*D:dor	*D:dor	*D:dor
*M4/2	*M4/2	*M4/2	*M4/2	*M4/2
=1	=1	=1	=1	=1
0r	0r	0r	0r	2.a
.	.	.	.	4a
.	.	.	.	2a
.	.	.	.	2a
=2	=2	=2	=2	=2
0r	0r	0r	2.d	1.dd
.	.	.	4d	.
.	.	.	2d	.
.	.	.	2d	2dd
=3	=3	=3	=3	=3
0r	2.d	0r	1a	2ff
.	.	.	.	2dd
.	4d	.	.	.
.	2d	.	2r	1ff
.	2d	.	2a	.
=4	=4	=4	=4	=4
0r	1a	0r	2cc	2ee
.	.	.	2a	4cc
.	.	.	.	4dd
.	2r	.	2.cc	4ee
.	.	.	.	4ff
.	2A	.	.	[2ee
.	.	.	8b	.
.	.	.	8a	.
=5	=5	=5	=5	=5
0r	2c	1r	2g	4ee]
.	.	.	.	4dd
.	2A	.	1a	2ff
.	2c	2.A	.	2ee
.	2d	.	2a	[2dd
.	.	4A	.	.
=6	=6	=6	=6	=6
1r	1e	2A	1a	4dd]
.	.	.	.	8cc
.	.	.	.	8b
.	.	2A	.	2cc#
2.D	2f	[1d	1a	[1dd
.	2d	.	.	.
4D	.	.	.	.
=7	=7	=7	=7	=7
2D	1f	2d]	0a	1dd]
2D	.	2A	.	.
1A	4e	2c	.	[1ee
.	4d	.	.	.
.	4c	2A	.	.
.	4B	.	.	.
=8	=8	=8	=8	=8
2r	2A	2.c	1a	1ee]
2A	2a	.	.	.
.	.	4d	.	.
2c	2g	2e	2r	1r
2A	[2f	[2a	2cc	.
=9	=9	=9	=9	=9
1c	2f]	2a]	2cc	0r
.	1e	2g	1cc	.
1G	.	1g	.	.
.	[2d	.	2b-	.
=10	=10	=10	=10	=10
1A	4d]	2f	1.a	0r
.	4c	.	.	.
.	2c	2.e	.	.
2F#	2A	.	.	.
.	.	4d	.	.
2G	[2B	[2d	4g	.
.	.	.	4f	.
=11	=11	=11	=11	=11
1E	2B]	4d]	2g	2r
.	.	8c	.	.
.	.	8B	.	.
.	4A	2c#	2e	2ee
.	4G	.	.	.
[1D	1A	[1d	2r	2ff
.	.	.	[2a	2dd
=12	=12	=12	=12	=12
1D]	2r	1d]	2a]	1ff
.	2d	.	2b-	.
1r	2e	2r	2g	2.ee
.	2c	[2A	[2cc	.
.	.	.	.	4dd
=13	=13	=13	=13	=13
0r	1f	2A]	2cc]	2cc
.	.	1a	4b	2dd
.	.	.	4a	.
.	2r	.	2cc	1ee
.	[2e	2g#	2b	.
=14	=14	=14	=14	=14
2.A	4e]	1a	2cc	0r
.	4e	.	.	.
.	2f	.	2a	.
4A	.	.	.	.
2B-	2d	1r	2f	.
2G	2g	.	[2b-	.
=15	=15	=15	=15	=15
1B-	2.f	2.d	4b-]	0r
.	.	.	4a	.
.	.	.	4f	.
.	8e	4d	4g	.
.	8d	.	.	.
[1A	4c	2e	1a	.
.	4d	.	.	.
.	[2e	2c	.	.
=16	=16	=16	=16	=16
0A]	2e]	2.f	0a	1r
.	2.d	.	.	.
.	.	8e	.	.
.	.	8d	.	.
.	.	2e	.	2.ee
.	8c	.	.	.
.	8B	.	.	.
.	2c#	[2a	.	.
.	.	.	.	4ee
=17	=17	=17	=17	=17
0r	1d	4a]	2r	2ff
.	.	4g	.	.
.	.	2.f	2.a	2dd
.	2.d	.	.	1ff
.	.	4e	4a	.
.	.	2d	2b-	.
.	4d	.	.	.
=18	=18	=18	=18	=18
0r	2e	2r	2g	2.ee
.	2c	2A	1cc	.
.	.	.	.	4dd
.	1f	2A	.	2cc
.	.	[2a	4b	2dd
.	.	.	4a	.
=19	=19	=19	=19	=19
1E	1e	2a]	1b	2.ee
.	.	2g#	.	.
.	.	.	.	4dd
2F	[1A	2a	2r	2cc
2D	.	2f	[2a	2dd
=20	=20	=20	=20	=20
1F	1A]	2f	2a]	1cc
.	.	2f	2cc	.
2.F	2c	1f	2a	2.cc
.	2A	.	[2cc	.
4G	.	.	.	4b
=21	=21	=21	=21	=21
1A	1c	0e	4cc]	4a
.	.	.	4b	4b
.	.	.	1a	4cc
.	.	.	.	4dd
1E	1B	.	.	1ee
.	.	.	2g#	.
=22	=22	=22	=22	=22
2r	0A	2c#	1a	2ee
1A	.	1e	.	1cc#
.	.	.	2r	.
2A	.	2e	[2a	2cc#
=23	=23	=23	=23	=23
0D	2r	1f	2a]	1dd
.	1d	.	2a	.
.	.	2.a	2f	[1ff
.	2d	.	[2a	.
.	.	4g	.	.
=24	=24	=24	=24	=24
1F	2A	2f	4a]	2ff]
.	.	.	4a	.
.	2.c	2f	2a	2ff
2C	.	2g	1cc	1ee
.	4c	.	.	.
2C	2c	[2a	.	.
=25	=25	=25	=25	=25
0D	0f	4a]	1a	0dd
.	.	4g	.	.
.	.	4f	.	.
.	.	4e	.	.
.	.	2d	2r	.
.	.	[2A	[2a	.
=26	=26	=26	=26	=26
2.A	1e	2A]	4a]	2.cc
.	.	.	4a	.
.	.	2.e	2a	.
8G	.	.	.	8b
8F	.	.	.	8a
1E	1r	.	2g	2b
.	.	4e	.	.
.	.	2e	2b	[2ee
=27	=27	=27	=27	=27
0r	0r	2c	2cc	4ee]
.	.	.	.	4ee
.	.	2d	2.b	2dd
.	.	2f	.	2.cc
.	.	.	4a	.
.	.	2f	[2a	.
.	.	.	.	8b
.	.	.	.	8a
=28	=28	=28	=28	=28
1r	2r	1e	2a]	1b
.	2.e	.	2g#	.
2r	.	1A	1a	1cc
.	4e	.	.	.
[2A	2e	.	.	.
=29	=29	=29	=29	=29
4A]	2c	0r	2.cc	2a
4A	.	.	.	.
2A	2e	.	.	1a
.	.	.	4b	.
2F	2f	.	2a	.
2G	[2e	.	2g	[2b-
=30	=30	=30	=30	=30
2B-	2e]	1r	2f	4b-]
.	.	.	.	4a
2B-	1d	.	4e	2g
.	.	.	4d	.
1A	.	2r	1e	1a
.	4c	[2e	.	.
.	4B	.	.	.
=31	=31	=31	=31	=31
0A	2.c	4e]	1r	2r
.	.	4e	.	.
.	.	2e	.	2.ee
.	4d	.	.	.
.	2e	2c	2r	.
.	.	.	.	4ee
.	2A	2e	[2a	2ee
=32	=32	=32	=32	=32
0r	0r	4f	4a]	2cc
.	.	4e	4a	.
.	.	4d	2a	2dd
.	.	4c	.	.
.	.	2d	2f	2ff
.	.	2c	2g	[2ee
=33	=33	=33	=33	=33
0r	1r	1g	2b-	2ee]
.	.	.	2b-	1dd
.	2r	2f	1a	.
.	[2A	4e	.	4cc
.	.	4d	.	4b
=34	=34	=34	=34	=34
2r	2A]	2e	1a	2.cc
1A	2A	1e	.	.
.	.	.	.	4dd
.	2.c	.	2r	[1ee
2A	.	2e	2a	.
.	4d	.	.	.
=35	=35	=35	=35	=35
1A	1e	1c	2a	1ee]
.	.	.	1cc	.
1F	2.f	2c	.	1a
.	.	[2d	2a	.
.	4e	.	.	.
=36	=36	=36	=36	=36
1G	2d	2d]	2b-	0r
.	2g	2.e	1b-	.
2B-	2f	.	.	.
.	.	4d	.	.
2B-	2d	[2d	2g	.
=37	=37	=37	=37	=37
0A	0e	2d]	1a	1r
.	.	4c	.	.
.	.	4B	.	.
.	.	2c	2r	1a
.	.	2A	[2a	.
=38	=38	=38	=38	=38
0r	2r	1e	2a]	2b
.	2e	.	2g	2cc
.	2d	1r	2a	4dd
.	.	.	.	8cc
.	.	.	.	8dd
.	2c	.	[2cc	[2ee
=39	=39	=39	=39	=39
0r	1f	2r	2cc]	4ee]
.	.	.	.	8dd
.	.	.	.	8cc
.	.	1a	4b	2dd
.	.	.	4a	.
.	2e	.	1b	1ee
.	[2e	2g#	.	.
=40	=40	=40	=40	=40
1A	2e]	1a	1cc	2r
.	2f#	.	.	2a
2G	2g	2d	1r	2b
2F	[2a	[2f	.	2cc
=41	=41	=41	=41	=41
1B-	4a]	2f]	0r	1.dd
.	8g	.	.	.
.	8f	.	.	.
.	2g	4e	.	.
.	.	4d	.	.
1A	2a	2e	.	.
.	2a	2A	.	2cc
=42	=42	=42	=42	=42
2G	1d	2B-	2r	1dd
2F	.	2.d	1a	.
2E	1r	.	.	1ee
.	.	4c#	.	.
2E	.	4c#	2g	.
.	.	8B	.	.
.	.	8c#	.	.
=43	=43	=43	=43	=43
2D	1a	4d	4f	1.ff
.	.	4e	4e	.
1d	.	4f	4d	.
.	.	4g	4e	.
.	2d	1a	4f	.
.	.	.	4g	.
2c	2e	.	[2a	2ee
=44	=44	=44	=44	=44
2B-	2f	1d	2a]	1dd
2B-	2.d	.	2g	.
1A	.	1e	1a	1r
.	8c	.	.	.
.	8B	.	.	.
.	2c	.	.	.
=45	=45	=45	=45	=45
0F	0A	0a	0cc	0ff
=46	=46	=46	=46	=46
1G	0d	1g	1b-	2.dd
.	.	.	.	4ee
1D	.	4.f	1a	1ff
.	.	8e	.	.
.	.	[2d	.	.
=47	=47	=47	=47	=47
1A	2.e	4d]	[0a	1ee
.	.	8c	.	.
.	.	8B	.	.
.	.	2c#	.	.
.	8d	.	.	.
.	8e	.	.	.
2.D	[1f	1d	.	1dd
4E	.	.	.	.
=48	=48	=48	=48	=48
4F	1f]	1A	1a]	[0cc
4G	.	.	.	.
4A	.	.	.	.
4B	.	.	.	.
1c	1e	2r	1g	.
.	.	2c	.	.
=49	=49	=49	=49	=49
1F	1A	2c	2r	1cc]
.	.	2c	2a	.
2F	2A	1d	2a	1r
2F	2A	.	2a	.
=50	=50	=50	=50	=50
1G	1B	2e	1g	1r
.	.	2.e	.	.
2A	2.c	.	1e	2r
.	.	4d	.	.
[2A	.	4c	.	2cc
.	4d	4B	.	.
=51	=51	=51	=51	=51
4A]	2e	2A	1.a	2cc
4G	.	.	.	.
4F	1A	2.f	.	2cc
4E	.	.	.	.
2D	.	.	.	1dd
.	.	4e	.	.
2F	2A	[2d	2a	.
=52	=52	=52	=52	=52
1E	2B	2d]	1g	1ee
.	2G	2c#	.	.
1D	2r	1d	2f	1a
.	2A	.	[2a	.
=53	=53	=53	=53	=53
1r	2e	0r	4a]	2b
.	.	.	4g	.
.	2e	.	2g	2.cc
2r	1f	.	[1a	.
.	.	.	.	4a
2D	.	.	.	[2dd
=54	=54	=54	=54	=54
2A	2e	0r	1a]	2dd]
2A	2.f	.	.	2cc#
1B-	.	.	2.f	1dd
.	4e	.	.	.
.	[2d	.	.	.
.	.	.	8e	.
.	.	.	8d	.
=55	=55	=55	=55	=55
2.A	4d]	2r	1e	0r
.	4c	.	.	.
.	4c	2A	.	.
8G	8B	.	.	.
8F	8A	.	.	.
2G	2B	2e	1r	.
2A	2c#	2e	.	.
=56	=56	=56	=56	=56
2D	2d	2.f	2r	0r
1d	2f	.	2d	.
.	.	8e	.	.
.	.	8d	.	.
.	2d	2f	2d	.
2c	2e	[2e	2a	.
=57	=57	=57	=57	=57
2B-	2f	4e]	1b-	1r
.	.	4d	.	.
2A	2g	1d	.	.
1A	1e	.	1a	2r
.	.	4c	.	2a
.	.	4B	.	.
=58	=58	=58	=58	=58
2r	1A	1c#	2.a	2ee
2A	.	.	.	2ee
.	.	.	4g	.
2D	2r	2.d	4f	1ff
.	.	.	4d	.
2D	2A	.	[2a	.
.	.	4c	.	.
=59	=59	=59	=59	=59
1E	2e	0B	2a]	0ee
.	2e	.	4g#	.
.	.	.	4f#	.
1E	[1e	.	1g#	.
=60	=60	=60	=60	=60
2r	1e]	[0A	[0a	2.cc
2.A	.	.	.	.
.	.	.	.	4dd
.	2c	.	.	2ee
4G	.	.	.	.
4F	2c	.	.	[2ff
4E	.	.	.	.
=61	=61	=61	=61	=61
2D	2d	1A_	1a_	2ff]
2C#	2e	.	.	2ee
1D	1f	1A_	1a_	1dd
=62	=62	=62	=62	=62
0A	0e	0A]	0a]	0cc#
=63	=63	=63	=63	=63
0r	0r	0r	0r	1a
.	.	.	.	1ee
=64	=64	=64	=64	=64
0r	0r	0r	1r	2dd
.	.	.	.	2cc
.	.	.	1d	2ff
.	.	.	.	2ff
=65	=65	=65	=65	=65
0r	0r	0r	1a	2.ee
.	.	.	.	4dd
.	.	.	2g	2ee
.	.	.	2f	[2ff
=66	=66	=66	=66	=66
0r	0r	0r	2b-	2ff]
.	.	.	2b-	4ee
.	.	.	.	4dd
.	.	.	4a	2cc
.	.	.	4g	.
.	.	.	4f	4a
.	.	.	4g	4b
=67	=67	=67	=67	=67
0r	1A	0r	4a	4cc
.	.	.	4b	4dd
.	.	.	2.cc	2.ee
.	1e	.	.	.
.	.	.	4b	4dd
.	.	.	4g	4b
.	.	.	4a	4cc
=68	=68	=68	=68	=68
0r	2d	0r	4b	2dd
.	.	.	4a	.
.	2c	.	2.cc	2ee
.	2f	.	.	4a
.	.	.	4b	4b
.	2f	.	[2a	4cc
.	.	.	.	4a
=69	=69	=69	=69	=69
0r	1.e	1r	2a]	1b
.	.	.	2g#	.
.	.	1A	[1a	4cc
.	.	.	.	4dd
.	4d	.	.	[2ee
.	4c	.	.	.
=70	=70	=70	=70	=70
1D	1f	2d	1a]	4ee]
.	.	.	.	8dd
.	.	.	.	8cc
.	.	1d	.	2dd
2A	1e	.	2r	1ee
[2A	.	2c	2e	.
=71	=71	=71	=71	=71
2A]	1r	1f	2a	2r
2F	.	.	1a	2a
1B-	2r	1d	.	2dd
.	2d	.	2g	[2dd
=72	=72	=72	=72	=72
1A	2a	0r	4f	2dd]
.	.	.	4e	.
.	1a	.	4e	2cc
.	.	.	8d	.
.	.	.	8c	.
1r	.	.	2d	1b
.	2g	.	2e	.
=73	=73	=73	=73	=73
1r	2f	2r	1A	0a
.	2e	2A	.	.
1D	2r	1d	2r	.
.	2f	.	2a	.
=74	=74	=74	=74	=74
1A	1e	2c	2a	0r
.	.	2c	2a	.
2G	2g	2d	2b-	.
2F	2c	[2f	[2a	.
=75	=75	=75	=75	=75
2B-	1d	2f]	2a]	0r
2B-	.	4e	2g	.
.	.	4d	.	.
1A	2e	2c	1a	.
.	2f	[2d	.	.
=76	=76	=76	=76	=76
1A	1e	2d]	1a	1r
.	.	2c	.	.
[1F	[1A	[1f	2r	[1cc
.	.	.	[2a	.
=77	=77	=77	=77	=77
2F]	2A]	2f]	2a]	2cc]
2F	2A	2f	2a	2cc
1F	1A	[1f	2a	1cc
.	.	.	[2a	.
=78	=78	=78	=78	=78
1.D	2.d	1f]	4a]	2r
.	.	.	4a	.
.	.	.	2b-	2.dd
.	4d	.	.	.
.	1f	2r	1a	.
.	.	.	.	4dd
2D	.	[2d	.	[2ff
=79	=79	=79	=79	=79
1D	2d	4d]	1.a	2ff]
.	.	4d	.	.
.	4a	2f	.	2dd
.	4g	.	.	.
1D	4f	2d	.	1ff
.	4e	.	.	.
.	2d	[2a	4f	.
.	.	.	4g	.
=80	=80	=80	=80	=80
1.A	2.c	4a]	4a	2ee
.	.	4g	4b	.
.	.	2.e	2.cc	4a
.	4d	.	.	4b
.	1e	.	.	4cc
.	.	4f	8b	4dd
.	.	.	8a	.
2E	.	2g	2b	[2ee
=81	=81	=81	=81	=81
2.F	0A	1f	0a	4ee]
.	.	.	.	4dd
.	.	.	.	1dd
4G	.	.	.	.
1A	.	1e	.	.
.	.	.	.	2cc#
=82	=82	=82	=82	=82
0D	1A	1d	1f#	1dd
.	1d	1f#	2r	2r
.	.	.	2a	2dd
=83	=83	=83	=83	=83
0r	1c	0g	1cc	1ee
.	2G	.	2b-	2dd
.	2g	.	2b-	2dd
=84	=84	=84	=84	=84
0r	2f	1d	2.a	2.dd
.	2d	.	.	.
.	.	.	4a	4dd
.	2f	2r	2a	2dd
.	2e	2g	2g	2cc#
=85	=85	=85	=85	=85
2r	2d	2f	1a	1dd
2d	2a	2d	.	.
2c	2.a	2.e	1r	1r
2A	.	.	.	.
.	4a	4f	.	.
=86	=86	=86	=86	=86
2c	2a	2e	1r	1r
2B-	2g	2d	.	.
1A	2.a	2e	2r	2r
.	.	[2a	[2cc	[2ee
.	8g	.	.	.
.	8f	.	.	.
=87	=87	=87	=87	=87
0r	1e	2a]	2cc]	2ee]
.	.	2g	2b-	2ee
.	1r	2f	2a	2dd
.	.	2e	2g	2cc#
=88	=88	=88	=88	=88
2r	1.a	1d	2f	2dd
1f	.	.	2f	2a
.	.	1c	1r	2.cc
2e	2g	.	.	.
.	.	.	.	4cc
=89	=89	=89	=89	=89
2d	2f	2r	2r	2b-
2c	2e	1a	2e	2a
1B-	2.d	.	2f	[1dd
.	.	2g	2g	.
.	4e	.	.	.
=90	=90	=90	=90	=90
1A	4f	2f	1a	2dd]
.	4g	.	.	.
.	1a	2e	.	2cc#
1r	.	1d	4f	4dd
.	.	.	4g	4ee
.	4g	.	4a	[2ff
.	4f	.	4b	.
=91	=91	=91	=91	=91
1r	1g	1c	1cc	4ff]
.	.	.	.	8ee
.	.	.	.	8dd
.	.	.	.	2ee
2r	2f	2r	[1a	[1ff
[2F	[2c	[2A	.	.
=92	=92	=92	=92	=92
4F]	4c]	4A]	1a]	1ff]
4F	4c	4A	.	.
2F	2d	2A	.	.
2G	2e	2B-	1r	2r
[2A	2f	[2c	.	[2cc
=93	=93	=93	=93	=93
4A]	2e	2c]	2r	4cc]
4G	.	.	.	4cc
4F	4a	2.A	2.f	2cc
4E	4g	.	.	.
2D	4f	.	.	1dd
.	4e	4G	4f	.
2F	[2d	2A	2f	.
=94	=94	=94	=94	=94
2E	2d]	2B	2g	1ee
2A	2c#	2A	2.a	.
1D	[1d	1A	.	2ff
.	.	.	4g	.
.	.	.	4f	[2ff
.	.	.	4e	.
=95	=95	=95	=95	=95
2r	1d]	1a	2d	4ff]
.	.	.	.	4ee
2F	.	.	2f	1dd
2G	1r	2g	1e	.
2A	.	2e	.	2cc#
=96	=96	=96	=96	=96
4D	2r	2.f	1d	1dd
4E	.	.	.	.
4F	2d	.	.	.
4G	.	8e	.	.
.	.	8d	.	.
1A	2c	4f	1r	2r
.	.	4e	.	.
.	2A	[2e	.	2cc
=97	=97	=97	=97	=97
2G	2B-	4e]	2r	1dd
.	.	4d	.	.
2F	2A	1d	2a	.
2E	1e	.	2g	1ee
2E	.	2c#	2g	.
=98	=98	=98	=98	=98
0D	1A	0d	2f	2.ff
.	.	.	2d	.
.	.	.	.	4dd
.	1f	.	2a	2dd
.	.	.	2a	2dd
=99	=99	=99	=99	=99
0r	2g	0r	2b	2ee
.	2a	.	2cc	2ee
.	4d	.	4a	2.ff
.	4e	.	4g	.
.	4f	.	4a	.
.	4g	.	4b	8ee
.	.	.	.	8dd
=100	=100	=100	=100	=100
1r	1a	1r	1cc	2ff
.	.	.	.	2.ee
2r	2g	2r	2b-	.
.	.	.	.	4dd
2F	2f	2a	2a	[2dd
=101	=101	=101	=101	=101
2G	1e	2g	2b-	2dd]
2A	.	2e	2a	2cc#
4D	2r	2.f	1a	1dd
4E	.	.	.	.
4F	2d	.	.	.
4G	.	8e	.	.
.	.	8d	.	.
=102	=102	=102	=102	=102
1A	2c	2f	1a	2r
.	2A	2.e	.	2cc
2G	2B-	.	1d	1dd
.	.	4d	.	.
2F	[2A	[2d	.	.
=103	=103	=103	=103	=103
1E	2A]	2d]	2g	1ee
.	2G	2c#	2g	.
1D	[1A	1d	2f	2.ff
.	.	.	[2a	.
.	.	.	.	8ee
.	.	.	.	8dd
=104	=104	=104	=104	=104
1A	1A]	1.e	4a]	1cc
.	.	.	4g	.
.	.	.	4e	.
.	.	.	4f	.
1G	2r	.	1g	1b-
.	[2d	2d	.	.
=105	=105	=105	=105	=105
0F	2d]	2.f	2a	0a
.	2c	.	2.cc	.
.	.	4g	.	.
.	2.f	2a	.	.
.	.	.	4b-	.
.	.	[2f	4a	.
.	4e	.	4g	.
=106	=106	=106	=106	=106
0B-	0d	4f]	1.f	0dd
.	.	4e	.	.
.	.	4d	.	.
.	.	4c	.	.
.	.	1d	.	.
.	.	.	2g	.
=107	=107	=107	=107	=107
1A	2e	2r	1a	1.cc#
.	2e	1A	.	.
1r	[1a	.	2r	.
.	.	[2f	2d	2dd
=108	=108	=108	=108	=108
0r	2a]	2f]	2f	2dd
.	2g	2e	2g	2ee
.	2f	2d	2a	2ff
.	2f	2d	2b	2dd
=109	=109	=109	=109	=109
2r	2g	0c	1cc	0ee
2A	2e	.	.	.
2.A	2.e	.	2r	.
.	.	.	2a	.
4A	4e	.	.	.
=110	=110	=110	=110	=110
2A	2e	0r	2.a	0r
1d	1f	.	.	.
.	.	.	4a	.
.	.	.	2a	.
2G	2d	.	2b-	.
=111	=111	=111	=111	=111
2.c	1e	2r	2g	0r
.	.	2e	2g	.
4B-	.	.	.	.
4A	2.c	2.e	2a	.
4G	.	.	.	.
[2A	.	.	[2cc	.
.	4B-	4e	.	.
=112	=112	=112	=112	=112
2A]	1A	2e	4cc]	0r
.	.	.	4b-	.
2F	.	1f	1a	.
1B-	1d	.	.	.
.	.	2d	2g	.
=113	=113	=113	=113	=113
0A	2.c#	1e	1a	2r
.	.	.	.	2ee
.	4d	.	.	.
.	1e	2c	2r	2.ee
.	.	4A	2a	.
.	.	4B	.	4ee
=114	=114	=114	=114	=114
0r	2r	4c	2.a	2ee
.	.	4A	.	.
.	2d	1d	.	1ff
.	.	.	4a	.
.	2f	.	2a	.
.	[2g	2G	[2b-	2dd
=115	=115	=115	=115	=115
0r	4g]	1r	2b-]	1gg
.	4f	.	.	.
.	2e	.	2g	.
.	2d	2r	1a	2ff
.	2c	2A	.	[2ee
=116	=116	=116	=116	=116
1r	2f	2d	2a	4ee]
.	.	.	.	4dd
.	2g	2G	2b-	1dd
2r	1e	1A	2.a	.
2A	.	.	.	4cc#
.	.	.	8g	4b
.	.	.	8f	.
=117	=117	=117	=117	=117
2.A	1a	2r	1e	1.cc#
.	.	2a	.	.
4A	.	.	.	.
2A	2r	2a	1r	.
[2B-	2f	2d	.	2dd
=118	=118	=118	=118	=118
2B-]	2d	2f	1r	2r
2G	2.e	2g	.	2ee
[1A	.	2c	2r	2.ee
.	4d	.	.	.
.	4c	[2e	2a	.
.	4B	.	.	4ee
=119	=119	=119	=119	=119
2A]	1A	2e]	2.a	2ee
2D	.	2d	.	1ff
.	.	.	4a	.
2F	1d	2r	2a	.
2G	.	[2G	2b-	2dd
=120	=120	=120	=120	=120
1C	1c	2G]	1g	1ee
.	.	2.c	.	.
2.F	2A	.	1a	1cc
.	.	4B-	.	.
.	[2f	2A	.	.
4E	.	.	.	.
=121	=121	=121	=121	=121
0D	2f]	0d	1a	2.ff
.	2d	.	.	.
.	.	.	.	4ee
.	2f	.	1a	4dd
.	.	.	.	4cc#
.	2f	.	.	[2dd
=122	=122	=122	=122	=122
0A	0e	2r	1a	2dd]
.	.	2A	.	4cc#
.	.	.	.	4b
.	.	2.A	2r	1cc#
.	.	.	2e	.
.	.	4A	.	.
=123	=123	=123	=123	=123
2D	[0d	2A	2f#	[0dd
2.G	.	1B-	2.g	.
4A	.	.	4f#	.
[2B-	.	2G	4g	.
.	.	.	4a	.
=124	=124	=124	=124	=124
4B-]	0d]	2G	2b-	0dd]
8A	.	.	.	.
8G	.	.	.	.
2F#	.	2A	2a	.
1G	.	1B-	1g	.
=125	=125	=125	=125	=125
[0D	[0d	[0A	[0f#	[0dd
=126	=126	=126	=126	=126
0D]	0d]	0A]	0f#]	0dd]
==	==	==	==	==
*-	*-	*-	*-	*-
!!!CDT: 1525/^1526/-1594/2/2
!!!OCY: Italia
!!!AGN: Mass (Parody)
!!!AST: renaissance, vocal
!!!ASW: Motet 1559 (Maillard)
!!!PWK: Masses, Book 4
!!!RNB: Cadence finals: A
!!!YOR: Le Opere Complete, v. 10, p. 79
!!!YOO: Rome, Italy: Fratelli Scalera
!!!END: 1992//
!!!EED: John Miller
!!!YEC: Copyright 2000, John Miller
!!!YEN: United States of America
!!!YEM: Rights to all derivative electronic formats reserved.
!!!YEM: Refer to licensing agreement for further details.
!!!YEM: This file must be accompanied by the licensing agreement.
!!!YEM: A copy of the licensing agreement may be found at http://www.music-cog.ohio-state.edu/HumdrumDatabases/Palestrina/license.txt
!!!EMD: converted to Humdrum by Bret Aarden
